brandFactory_export/3.Masa/Visa tarjeta credito _3Masa.svg

<?xml version="1.0" encoding="UTF-8"?>
<svg width="24px" height="24px" viewBox="0 0 24 24" version="1.1" xmlns="http://www.w3.org/2000/svg" xmlns:xlink="http://www.w3.org/1999/xlink">
    <title>3.Masa/Visa tarjeta credito _3Masa</title>
    <g id="Symbols" stroke="none" stroke-width="1" fill="none" fill-rule="evenodd">
        <g id="3.Masa/Visa-tarjeta-credito-_3Masa" fill="#5CB615" fill-rule="nonzero">
            <path d="M21.8890756,19.3109244 C22.0369748,19.3109244 22.1546218,19.1932773 22.1546218,19.0487395 L22.1546218,12.1344538 L1.45882353,12.1344538 L1.45882353,19.0487395 C1.45882353,19.1932773 1.57983193,19.3109244 1.72773109,19.3109244 L21.8890756,19.3109244 Z M1.72773109,5.42184874 C1.57983193,5.42184874 1.45882353,5.5394958 1.45882353,5.68739496 L1.45882353,7.11932773 L22.1546218,7.11932773 L22.1546218,5.68739496 C22.1546218,5.54285714 22.0336134,5.42184874 21.8890756,5.42184874 L1.72773109,5.42184874 Z M23.6235294,7.83193277 L23.6235294,11.4218487 C23.6235294,11.4554622 23.6067227,11.4890756 23.6033613,11.5226891 L23.6033613,19.0487395 C23.6033613,19.9798319 22.8336134,20.7361345 21.8890756,20.7361345 L1.72773109,20.7361345 C0.783193277,20.7361345 0.0134453782,19.9798319 0.0134453782,19.0487395 L0.0134453782,11.4823529 C0.0100840336,11.4621849 0,11.4453782 0,11.4218487 L0,7.83193277 C0,7.81176471 0.0100840336,7.79159664 0.0134453782,7.77478992 L0.0134453782,5.6907563 C0.0134453782,4.75966387 0.783193277,4.00336134 1.72773109,4.00336134 L21.8890756,4.00336134 C22.8336134,4.00336134 23.6033613,4.75966387 23.6033613,5.6907563 L23.6033613,7.73445378 C23.6067227,7.76470588 23.6235294,7.79495798 23.6235294,7.83193277 Z M15.0084034,17.2134454 C15.6235294,17.2033613 16.3563025,16.9512605 16.3563025,15.8117647 C16.3563025,14.6722689 15.6168067,14.4168067 14.994958,14.4 L14.8201681,14.4 C14.2151261,14.4033613 13.492437,14.6521008 13.492437,15.8016807 C13.492437,16.9546218 14.2252101,17.2067227 14.8369748,17.2168067 L15.0084034,17.2134454 Z M18.4504202,13.1697479 C19.6369748,13.1966387 21.0285714,13.9058824 21.0285714,15.8151261 C21.0285714,17.7277311 19.6369748,18.4302521 18.4470588,18.4504202 L18.2386555,18.4504202 C17.9159664,18.4470588 17.2235294,18.3764706 16.6252101,17.9327731 C16.1512605,18.2756303 15.5697479,18.4369748 15.0252101,18.4470588 L14.8168067,18.4470588 C13.6268908,18.4302521 12.2352941,17.7277311 12.2352941,15.7983193 C12.2352941,13.8689076 13.6201681,13.1731092 14.8033613,13.1630252 C14.8806723,13.1630252 14.9579832,13.1630252 15.0252101,13.1663866 C15.5596639,13.1798319 16.1344538,13.3411765 16.6084034,13.6806723 C17.2336134,13.2201681 17.9697479,13.1663866 18.2285714,13.1630252 C18.302521,13.1630252 18.3831933,13.1663866 18.4504202,13.1697479 L18.4504202,13.1697479 Z" id="Visa-tarjeta-credito-_3Masa"></path>
        </g>
    </g>
</svg>

<svg width="24" height="24" viewBox="0 0 24 24" xmlns="http://www.w3.org/2000/svg"><path d="M21.89 19.31a.263.263 0 00.265-.261v-6.915H1.459v6.915c0 .144.12.262.269.262h20.161zM1.727 5.423a.267.267 0 00-.27.265V7.12h20.697V5.687a.268.268 0 00-.266-.265H1.728zm21.896 2.41v3.59c0 .033-.017.067-.02.1v7.527c0 .93-.77 1.687-1.715 1.687H1.728c-.945 0-1.715-.756-1.715-1.687v-7.567c-.003-.02-.013-.037-.013-.06v-3.59c0-.02.01-.04.013-.057V5.69c0-.931.77-1.688 1.715-1.688h20.161c.945 0 1.714.757 1.714 1.688v2.043c.004.03.02.061.02.098zm-8.616 9.381c.616-.01 1.348-.262 1.348-1.401 0-1.14-.74-1.395-1.361-1.412h-.175c-.605.003-1.328.252-1.328 1.402 0 1.153.733 1.405 1.345 1.415l.171-.004zm3.442-4.043c1.187.027 2.579.736 2.579 2.645 0 1.913-1.392 2.615-2.582 2.635h-.208c-.323-.003-1.015-.074-1.614-.517a2.845 2.845 0 01-1.6.514h-.208c-1.19-.017-2.582-.72-2.582-2.649 0-1.93 1.385-2.625 2.568-2.635.078 0 .155 0 .222.003a2.87 2.87 0 011.583.515c.626-.46 1.362-.515 1.62-.518.075 0 .155.003.222.007z" fill="#5CB615" fill-rule="nonzero"/></svg>
